!!!!SEGMENT: pl-kozmzk--mzk-m-159--004_walczynski-franciszek--praeludia-organi-op-5-moderato.krn
!!!cenid: 18xx:2747
!!!COM: Walczyński, Franciszek
!!!COM-rismID:
!!!CDT: ~1852-1937
!!!CNT: Polish
!!!GTL: Praeludia organi op. 5
!!!OTL: 4. Moderato
!!!PDT: 1894
!!!AGN: Secular; Prelude
!!!SMS-siglum: PL-KOZmzk
!!!SMS-shelfmark: mzk/m/159
!!!SMS-shelfwork: 004 G
!!!SMS-variant:
!!!SMS-altvar:
!!!NIFC-rismSourceID: 1001116614
!!!NIFC-islandoraID: pl-kozmzk:2265
!!!URL-pdf-islandora: https://repozytorium.nifc.pl/islandora/object/pl-kozmzk%3A2265/datastream/PDF/view
!!!URL-scan: https://polish.musicsources.pl/pl/lokalizacje/galeria/druki-muzyczne/7406 @EN{Scan on Polish Music Herritage in Open Access Website} @PL{Skany w portalu Dziedzictwo Muzyki Polskiej w otwartym dostępie}
!!!ONB-nifc: UWAGA: numeracja plików zgodna z numeracją źrodłową
!!!OMD: 4. Moderato.
!!!AIN: 2 empty
!!!key:
**kern	**kern	**dynam
*part2	*part1	*part1
*staff2	*staff1	*
*Iempty	*Iempty	*
*I"	*I"	*
*clefF4	*clefG2	*
*k[f#]	*k[f#]	*
*G:	*G:	*
*M4/4	*M4/4	*
*met(c)	*met(c)	*
=1	=1	=1
*^	*^	*
!	!	!	!	!LO:DY:b=2
1r	4G\	1r	1r	f
.	4B\	.	.	.
.	4.A^\	.	.	.
.	8G\	.	.	.
=2	=2	=2	=2	=2
4d/	[2F#\	1r	1r	.
4e/	.	.	.	.
4.d^/	(8F#\L]	.	.	.
.	8D\	.	.	.
.	8E\	.	.	.
8c/	8F#\J	.	.	.
=3	=3	=3	=3	=3
(4B/	2G\)	1r	4g\	f
4d/	.	.	4b\	.
2e/)	(4C\	.	4.a^\	.
.	4C#X\	.	.	.
.	.	.	8g\	.
=4	=4	=4	=4	=4
!	!	!	!	!LO:DY:a
[1d/	1D\)	4dd/	4f#\	f
.	.	4ee/	4g\	.
.	.	4.dd^/	4f#\	.
.	.	.	8e\L	.
.	.	8cc/	8f#\J	.
=5	=5	=5	=5	=5
4d/]	4G\	4b/	2.g\	<
(4B/	(4Fn\	(4dd/	.	.
4c/	4E\	4cc/	.	.
4d/	4D\	4b/	[4g\	[
=6	=6	=6	=6	=6
*	*	*	*	*^
2e/	4C\	2a/	2g\]	.	.
.	4C#X\	.	.	>	.
4d/	2D\	2dd/	2f#X\	.	.
4cn/	.	.	.	.	.
=7	=7	=7	=7	=7	=7
2B/)	2GG\)	2gZ/)	2gZ\	]]	.
!	!	!	!	!LO:DY:rj	!LO:DY:b=2
(4fn/	[2G\	(4dd/	[2g\	pp	pp
8e/L	.	8cc/L	.	.	.
8d#X/J	.	8b/J	.	.	.
*	*	*	*	*v	*v
=8	=8	=8	=8	=8
4e/	1G\_	2ccZ/)	2g\]	.
4cZ/)	.	.	.	.
(4e-X/	.	[2gg/	(4cc\	f
8c/L	.	.	8a\L	.
8e-/J	.	.	8cc\J	.
=9	=9	=9	=9	=9
4d/	2G\]	2ggZ/]	2b\)	.
4BZ/)	.	.	.	.
!	!	!	!	!LO:DY:rj
(4A/	2D#X\	(4.b/	2f#X\	p
8B/L	.	.	.	.
8c/J	.	8a/	.	.
=10	=10	=10	=10	=10
4B/	4E\	4g/	2e\	.
[4c/	4C\	4a/	.	.
8c/L]	2Dn\	4g/	4.d\	.
8B/J	.	.	.	.
4A/)	.	4f#/)	.	.
.	.	.	8c\	.
=11	=11	=11	=11	=11
*	*	*	*	*above
!	!	!	!	!
(4G/	[1GG\	[1g/	(4B\	<
4Fn/	.	.	4d\	.
4E/	.	.	4c#X\	.
4E-X/	.	.	4cn\	.
=12	=12	=12	=12	=12
!LO:TX:b:i:t=rit.	!	!	!	!
2D/	1GG\_	1g/_	4c\	[ >
.	.	.	4B\	.
4C/	.	.	4A\	.
4E-X/	.	.	([4c\)	.
=13	=13	=13	=13	=13
!	!	!	!	!LO:DY:rj
1D/)	1GG\;]	1g/;]	4c\]	] pp
.	.	.	8B\L	.
.	.	.	8A\J	.
.	.	.	2B\)	.
*v	*v	*	*	*
*	*v	*v	*
==	==	==
*-	*-	*-
!!!system-decoration: {(s1,s2)}
!!!RDF**kern: Z = caesura
!!!EED: Andrzej Borzym
!!!EEV: 2021-08-08
!!!ENC: Krzysztof Stępień
!!!END: 2021-07-26
